X: 2741
T: Banks Of The Dee, The
R: jig
M: 6/8
K: Gmajor
|:G|DEF GAB|ced cBA|BGE Ddc|BcA G2:|
|:G/A/|Bcd d2 g|ede dBG|Bcd efg|GAG FED|
cec BdB|GFG AFD|GFE Ddc|BcA G2:|

